shader ovm_Abs_Color
(
    color input = 1,
    output color resultRGB = 1,
    output float resultR = 1,
    output float resultG = 1,
    output float resultB = 1

)
{
    resultRGB = abs(input);
    resultR = resultRGB[0];
    resultG = resultRGB[1];
    resultB = resultRGB[2];
}
